X: 5
T: Behind the Haystack
R: jig
Z: 2012 John Chambers <jc@trillian.mit.edu>
B: "100 Essential Irish Session Tunes" 1995 Dave Mallinson, ed.
M: 6/8
L: 1/8
K: D
A |\
"D"d2e fdB | "Bm"d2e fdB | "Em"AFE EFE | "A7"AFE EFA |\
"D"d2e fdB | "Bm"d2e fdB | "D"AFD "G"DED | "D"AFD D2 :|
|: A |\
"Bm"B2A BAF | "D"ABc dcB | "Em"AFE EFE | "A7"AFE EFA |\
"Bm"B2A BAF | "D"ABc "G"dcB | "D"AFD "G"DED | "D"AFD D2 :|
|: f |\
"G"g3 "D"f3 | "Em"ede fdB | "A"AFE EFE | AFE EFA |\
"G"gbg "D"faf | "Em"ede feB | "D"AFD "G"DED | "D"AFD D2 :|

%%sep 2 1 500
%%sep 1 1 500

